chrome/icons/document.svg

<svg height="16" viewBox="128 0 768 1024" width="16" xmlns="http://www.w3.org/2000/svg" xmlns:xlink="http://www.w3.org/1999/xlink">
  <path d="M896,392L896,896C896,913.667 892.667,930.25 886,945.75C879.333,961.25 870.167,974.833 858.5,986.5C846.833,998.167 833.25,1007.33 817.75,1014C802.25,1020.67 785.667,1024 768,1024L256,1024C238.333,1024 221.75,1020.67 206.25,1014C190.75,1007.33 177.167,998.167 165.5,986.5C153.833,974.833 144.667,961.25 138,945.75C131.333,930.25 128,913.667 128,896L128,128C128,110.333 131.333,93.7501 138,78.25C144.667,62.7501 153.833,49.1667 165.5,37.5C177.167,25.8334 190.75,16.6667 206.25,10C221.75,3.33337 238.333,0 256,0L504,0C521,0 537.333,3.25 553,9.75C568.667,16.25 582.5,25.5 594.5,37.5L858.5,301.5C870.5,313.5 879.75,327.333 886.25,343C892.75,358.667 896,375 896,392ZM832,392C832,390.667 832,389.333 832,388C832,386.667 831.833,385.333 831.5,384L640,384C622.333,384 605.75,380.667 590.25,374C574.75,367.333 561.167,358.167 549.5,346.5C537.833,334.833 528.667,321.25 522,305.75C515.333,290.25 512,273.667 512,256L512,64.5C510.667,64.1667 509.333,64.0001 508,64C506.667,64.0001 505.333,64.0001 504,64L256,64C247,64.0001 238.667,65.6667 231,69C223.333,72.3334 216.583,76.9167 210.75,82.75C204.917,88.5834 200.333,95.3334 197,103C193.667,110.667 192,119 192,128L192,896C192,905 193.667,913.417 197,921.25C200.333,929.083 204.833,935.833 210.5,941.5C216.167,947.167 222.917,951.667 230.75,955C238.583,958.333 247,960 256,960L768,960C777,960 785.333,958.333 793,955C800.667,951.667 807.417,947.083 813.25,941.25C819.083,935.417 823.667,928.667 827,921C830.333,913.333 832,905 832,896ZM787,320L576,109L576,256C576,265 577.667,273.417 581,281.25C584.333,289.083 588.833,295.833 594.5,301.5C600.167,307.167 606.917,311.667 614.75,315C622.583,318.333 631,320 640,320Z" fill="context-fill" fill-opacity="context-fill-opacity">
  </path>
</svg>

<svg xmlns="http://www.w3.org/2000/svg" width="16" height="16" viewBox="128 0 768 1024"><path fill="context-fill" fill-opacity="context-fill-opacity" d="M896 392v504q0 26.5-10 49.75t-27.5 40.75c-11.667 11.667-25.25 20.83-40.75 27.5s-32.083 10-49.75 10H256c-17.667 0-34.25-3.33-49.75-10s-29.083-15.833-40.75-27.5Q148 969 138 945.75T128 896V128q0-26.5 10-49.75t27.5-40.75T206.25 10 256 0h248q25.5 0 49 9.75t41.5 27.75l264 264q18 18 27.75 41.5t9.75 49m-64 0v-4q0-2-.5-4H640q-26.5 0-49.75-10t-40.75-27.5-27.5-40.75T512 256V64.5a16.4 16.4 0 0 0-4-.5H256q-13.5 0-25 5t-20.25 13.75T197 103t-5 25v768q0 13.5 5 25.25t13.5 20.25 20.25 13.5 25.25 5h512q13.5 0 25-5t20.25-13.75T827 921t5-25Zm-45-72L576 109v147q0 13.5 5 25.25t13.5 20.25 20.25 13.5 25.25 5Z"/></svg>
